contributed-vectors/androidvnc.svg

<?xml version="1.0" encoding="UTF-8" standalone="no"?>
<svg
   xmlns:dc="http://purl.org/dc/elements/1.1/"
   xmlns:cc="http://creativecommons.org/ns#"
   xmlns:rdf="http://www.w3.org/1999/02/22-rdf-syntax-ns#"
   xmlns:svg="http://www.w3.org/2000/svg"
   xmlns="http://www.w3.org/2000/svg"
   xmlns:sodipodi="http://sodipodi.sourceforge.net/DTD/sodipodi-0.dtd"
   xmlns:inkscape="http://www.inkscape.org/namespaces/inkscape"
   width="192"
   height="192"
   version="1.1"
   viewBox="0 0 192 192"
   id="svg14"
   sodipodi:docname="androidvnc.svg"
   inkscape:version="0.92.5 (2060ec1f9f, 2020-04-08)">
  <metadata
     id="metadata20">
    <rdf:RDF>
      <cc:Work
         rdf:about="">
        <dc:format>image/svg+xml</dc:format>
        <dc:type
           rdf:resource="http://purl.org/dc/dcmitype/StillImage" />
        <dc:title></dc:title>
      </cc:Work>
    </rdf:RDF>
  </metadata>
  <defs
     id="defs18" />
  <sodipodi:namedview
     pagecolor="#ffffff"
     bordercolor="#666666"
     borderopacity="1"
     objecttolerance="10"
     gridtolerance="10"
     guidetolerance="10"
     inkscape:pageopacity="0"
     inkscape:pageshadow="2"
     inkscape:window-width="1280"
     inkscape:window-height="745"
     id="namedview16"
     showgrid="true"
     inkscape:zoom="3.4766083"
     inkscape:cx="84.883177"
     inkscape:cy="124.35483"
     inkscape:window-x="-12"
     inkscape:window-y="-2"
     inkscape:window-maximized="1"
     inkscape:current-layer="svg14">
    <inkscape:grid
       type="xygrid"
       id="grid843" />
  </sodipodi:namedview>
  <path
     style="opacity:1;vector-effect:none;fill:#ececec;fill-opacity:1;stroke-width:4;paint-order:stroke fill markers"
     d="M 116,44 A 36,36 0 0 0 87.210936,58.45312 32,32 0 0 0 68,52 32,32 0 0 0 40.0625,68.42188 20,20 0 0 0 36,68 20,20 0 0 0 16,88 20,20 0 0 0 16.90625,93.89844 32,32 0 0 0 8,116 32,32 0 0 0 36.890625,147.85156 C 41.927524,155.19784 50.381748,160 60,160 h 72 c 9.96033,0 18.65593,-5.16104 23.61719,-12.95312 A 32,32 0 0 0 180,116 32,32 0 0 0 167.94531,91.01564 34,34 0 0 0 168,90 34,34 0 0 0 144.13281,57.54688 36,36 0 0 0 116,44 Z"
     id="path890"
     inkscape:connector-curvature="0" />
  <path
     inkscape:connector-curvature="0"
     style="fill:#728dbe;stroke-width:4"
     d="M 96,52 48,64 c -3.655,23.75748 -4,47.963 -4,72 0,44 40,48 52,48 16,0 52,-4 52,-48 0,-24.037 -0.345,-48.24252 -4,-72 z"
     id="path829" />
  <path
     inkscape:connector-curvature="0"
     style="fill:#ececec;stroke-width:4"
     d="m 96,8 c -8,0 -40,4 -48,56 0,0 20,16 48,16 28,0 48,-16 48,-16 C 136,12 104,8 96,8 Z"
     id="path829-7" />
  <rect
     style="opacity:1;vector-effect:none;fill:#b1b5bd;fill-opacity:1;stroke-width:4;paint-order:stroke fill markers"
     id="rect908"
     width="2"
     height="72"
     x="95"
     y="8" />
  <path
     style="fill:#83868c;stroke-width:4"
     d="m 96,68 c -4,0 -6,-4 -6,-16 0,-12 2,-16 6,-16 4,0 6,4 6,16 0,12 -2,16 -6,16 z"
     id="path883"
     inkscape:connector-curvature="0"
     sodipodi:nodetypes="sssss" />
</svg>

<svg xmlns="http://www.w3.org/2000/svg" width="192" height="192"><path d="M116 44a36 36 0 0 0-28.79 14.453A32 32 0 0 0 68 52a32 32 0 0 0-27.938 16.422A20 20 0 0 0 36 68a20 20 0 0 0-20 20 20 20 0 0 0 .906 5.898A32 32 0 0 0 8 116a32 32 0 0 0 28.89 31.852A27.926 27.926 0 0 0 60 160h72c9.96 0 18.656-5.161 23.617-12.953A32 32 0 0 0 180 116a32 32 0 0 0-12.055-24.984A34 34 0 0 0 168 90a34 34 0 0 0-23.867-32.453A36 36 0 0 0 116 44Z" style="opacity:1;vector-effect:none;fill:#ececec;fill-opacity:1;stroke-width:4;paint-order:stroke fill markers"/><path d="M96 52 48 64c-3.655 23.757-4 47.963-4 72 0 44 40 48 52 48 16 0 52-4 52-48 0-24.037-.345-48.243-4-72z" style="fill:#728dbe;stroke-width:4"/><path d="M96 8c-8 0-40 4-48 56 0 0 20 16 48 16s48-16 48-16c-8-52-40-56-48-56Z" style="fill:#ececec;stroke-width:4"/><path d="M95 8h2v72h-2z" style="opacity:1;vector-effect:none;fill:#b1b5bd;fill-opacity:1;stroke-width:4;paint-order:stroke fill markers"/><path d="M96 68c-4 0-6-4-6-16s2-16 6-16 6 4 6 16-2 16-6 16z" style="fill:#83868c;stroke-width:4"/></svg>
